X: 1
T: Paddy's
M: 2/4
L: 1/8
R: polka
K: Gmaj
|:D>E GA |Bd BG |AG/A/ BA |AG EG |
D>E GA |Bd BG |AG/A/ BA |G2 G2 :|
|:ge/f/ ge |dB dB |G>A GA/B/ |AG EG |
ge/f/ ge |dB dB |G>A GA/B/ |AG G2 :|
